packages/icons/web/link_small.svg

<svg width="24" height="24" viewBox="0 0 24 24" fill="none" xmlns="http://www.w3.org/2000/svg">
<path d="M13.3821 10.5857L13.0285 10.2322C11.857 9.06059 9.95748 9.06059 8.78591 10.2322L5.95748 13.0606C4.78591 14.2322 4.78591 16.1317 5.95748 17.3032L6.66459 18.0103C7.83616 19.1819 9.73565 19.1819 10.9072 18.0103L11.2608 17.6568" stroke="#212933" stroke-width="2" stroke-linecap="round"/>
<path d="M10.5534 13.4143C10.669 13.5298 10.7874 13.6483 10.9069 13.7678C12.0785 14.9394 13.9781 14.9394 15.1496 13.7678L17.9781 10.9394C19.1496 9.76784 19.1496 7.86834 17.9781 6.69677L17.271 5.98967C16.0994 4.81809 14.1999 4.81809 13.0283 5.98967L12.6748 6.34322" stroke="#212933" stroke-width="2" stroke-linecap="round"/>
</svg>

<svg width="24" height="24" fill="none" xmlns="http://www.w3.org/2000/svg">
    <path d="M13.382 10.586l-.354-.354a3 3 0 00-4.242 0l-2.829 2.829a3 3 0 000 4.242l.708.707a3 3 0 004.242 0l.354-.353" stroke="currentColor" stroke-width="2" stroke-linecap="round"/>
    <path d="M10.553 13.414l.354.354a3 3 0 004.243 0l2.828-2.829a3 3 0 000-4.242l-.707-.707a3 3 0 00-4.243 0l-.353.353" stroke="currentColor" stroke-width="2" stroke-linecap="round"/>
</svg>
